X:29
T:Sonderhoning
R:sonderhoning
Z:from RealPlayer audio. Original was more improvised -- this is one version
M:2/4
L:1/8
Q:90
K:D
|: d>f fd \
| ef/g/ ge \
| dd/d/ ef \
| f3 A \
:: (3 def (3 def \
| (3 def (3 fed |
| (3 cde (3 cde \
| df/f/ fd \
| BB/B/ Bg \
| g3 e \
| ff/f/ ee \
| d3 A :|
